**kern
*staff3
*tb24
=1-
*clefF4
*k[b-]
*M3/4
4D\ 4F\
.
.
.
.
.
4D\ 4F\
.
.
.
.
.
4D\ 4F\
.
.
.
.
.
=2
2C;\ 2E;\
.
.
.
.
.
.
.
.
.
.
.
4BB-/
.
.
.
.
.
=3
4AA/
.
.
.
.
.
4r
.
.
.
.
.
4A\ 4c\
.
.
.
.
.
=4
!!linebreak:original
4.G\ 4.d\
.
.
.
.
.
.
.
.
8GG/L
.
.
8GG/
.
.
8AA/J
.
.
=5
4BB-/
.
.
.
.
.
8r
.
.
8B-\L
.
.
8B-\
.
.
8A\J
.
.
=6
4B-\
.
.
.
.
.
4r
.
.
.
.
.
4B-\
.
.
.
.
.
=7
2A\
.
.
.
.
.
.
.
.
.
.
.
4r
.
.
.
.
.
=8
!!linebreak:original
4.GG/
.
.
.
.
.
.
.
.
8G\L 8B-\L
.
.
8G\ 8B-\
.
.
8G\J 8B-\J
.
.
=9
4.FF/
.
.
.
.
.
.
.
.
8F\L 8B-\L
.
.
8F\ 8B-\
.
.
8F\J 8B-\J
.
.
=10
4.FF/
.
.
.
.
.
.
.
.
8F\L 8c\L
.
.
8F\ 8c\
.
.
8F\J 8c\J
.
.
=11
4.FF#/
.
.
.
.
.
.
.
.
8F#\L 8c\L
.
.
8F#\ 8c\
.
.
8F#\J 8c\J
.
.
=12
!!linebreak:original
4.GG/
.
.
.
.
.
.
.
.
8G\L
.
.
8A\
.
.
8B-\J
.
.
=13
4A\
.
.
.
.
.
4G\
.
.
.
.
.
4AA\ 4G\
.
.
.
.
.
=14
4DD\ 4D\
.
.
.
.
.
4r
.
.
.
.
.
8AA\L 8C#\L 8G\L
.
.
8E\J
.
.
=15
*^
4G/	2D\
.	.
.	.
.	.
.	.
.	.
4F/	.
.	.
.	.
.	.
.	.
.	.
*v	*v
4r
.
.
.
.
.
=16||
!!linebreak:original
4D\ 4F\
.
.
.
.
.
4D\ 4F\
.
.
.
.
.
4D\ 4F\
.
.
.
.
.
=17
2C;\ 2E;\
.
.
.
.
.
.
.
.
.
.
.
4BB-/
.
.
.
.
.
=18
2AA/
.
.
.
.
.
.
.
.
.
.
.
4A\ 4c\
.
.
.
.
.
=19
4.GG/
.
.
.
.
.
.
.
.
8GG/L
.
.
8GG/
.
.
8AA/J
.
.
=20
!!linebreak:original
4.BB-/
.
.
.
.
.
.
.
.
8B-\L
.
.
8B-\
.
.
8A\J
.
.
=21
4B-\
.
.
.
.
.
4r
.
.
.
.
.
4B-\
.
.
.
.
.
=22
8BB-\L
.
.
8B-\
.
.
8B-\
.
.
8A\
.
.
8B-\
.
.
8B-\J
.
.
=23
!!linebreak:original
4A-\
.
.
.
.
.
4r
.
.
.
.
.
4A-\
.
.
.
.
.
=24
2G\
.
.
.
.
.
.
.
.
.
.
.
4r
.
.
.
.
.
=25
2C/
.
.
.
.
.
.
.
.
.
.
.
4F\
.
.
.
.
.
=26
!!linebreak:original
2BB-/
.
.
.
.
.
.
.
.
.
.
.
4r
.
.
.
.
.
=27
4r
.
.
.
.
.
4AA/
.
.
.
.
.
4AA\ 4G\
.
.
.
.
.
=28
4DD/ 4D/
.
.
.
.
.
4r
.
.
.
.
.
8AA/L 8C#/L
.
.
8E/J
.
.
=29
*^
4G/	2D\
.	.
.	.
.	.
.	.
.	.
4F/	.
.	.
.	.
.	.
.	.
.	.
*v	*v
4r
.
.
.
.
.
=30||
!!linebreak:original
4D\ 4F\
.
.
.
.
.
4D\ 4F\
.
.
.
.
.
4D\ 4F\
.
.
.
.
.
=31
2C\ 2E\
.
.
.
.
.
.
.
.
.
.
.
4BB-/
.
.
.
.
.
=32
4AA/
.
.
.
.
.
4r
.
.
.
.
.
4D\ 4d\
.
.
.
.
.
=33
*^
4e-/	2G\
.	.
.	.
.	.
.	.
.	.
4d;/	.
.	.
.	.
.	.
.	.
.	.
*v	*v
4r
.
.
.
.
.
=34
!!linebreak:original
8r
.
.
8c\L
.
.
8c\
.
.
8c\
.
.
8c\
.
.
8c\J
.
.
=35
4B-\
.
.
.
.
.
4r
.
.
.
.
.
4r
.
.
.
.
.
=36
8r
.
.
8B-\L
.
.
8B-\
.
.
8B-\
.
.
8An\
.
.
8B-\J
.
.
=37
!!linebreak:original
4A-\
.
.
.
.
.
4r
.
.
.
.
.
4A-\ 4c\
.
.
.
.
.
=38
4G\ 4e-\
.
.
.
.
.
8G\ 8d\
.
.
8r
.
.
4r
.
.
.
.
.
=39
2C/
.
.
.
.
.
.
.
.
.
.
.
4F\
.
.
.
.
.
=40
!!linebreak:original
4.BB-/
.
.
.
.
.
.
.
.
8B-\L
.
.
8B-\
.
.
8B-\J
.
.
=41
4.BB-/
.
.
.
.
.
.
.
.
8B-\L
.
.
8B-\
.
.
8B-\J
.
.
=42
4A\
.
.
.
.
.
4A\
.
.
.
.
.
4AA\ 4G\
.
.
.
.
.
=43
6D\ 6F\
.
.
.
6r
.
.
.
6AA\ 6C#\ 6G\
.
.
.
4E\
.
.
.
.
.
=44
4D\ 4G\
.
.
.
.
.
4D\ 4F\
.
.
.
.
.
4r
.
.
.
.
.
==
*-
